apps/scalable/activitywatch.svg

<?xml version="1.0" encoding="UTF-8" standalone="no"?>
<svg
   xmlns:dc="http://purl.org/dc/elements/1.1/"
   xmlns:cc="http://creativecommons.org/ns#"
   xmlns:rdf="http://www.w3.org/1999/02/22-rdf-syntax-ns#"
   xmlns:svg="http://www.w3.org/2000/svg"
   xmlns="http://www.w3.org/2000/svg"
   xmlns:sodipodi="http://sodipodi.sourceforge.net/DTD/sodipodi-0.dtd"
   xmlns:inkscape="http://www.inkscape.org/namespaces/inkscape"
   height="48"
   width="48"
   version="1.1"
   id="svg10"
   sodipodi:docname="activitywatch.svg"
   inkscape:version="1.0.2 (e86c870879, 2021-01-15)">
  <metadata
     id="metadata16">
    <rdf:RDF>
      <cc:Work
         rdf:about="">
        <dc:format>image/svg+xml</dc:format>
        <dc:type
           rdf:resource="http://purl.org/dc/dcmitype/StillImage" />
        <dc:title />
      </cc:Work>
    </rdf:RDF>
  </metadata>
  <defs
     id="defs14" />
  <sodipodi:namedview
     pagecolor="#ffffff"
     bordercolor="#666666"
     borderopacity="1"
     objecttolerance="10"
     gridtolerance="10"
     guidetolerance="10"
     inkscape:pageopacity="0"
     inkscape:pageshadow="2"
     inkscape:window-width="1920"
     inkscape:window-height="1028"
     id="namedview12"
     showgrid="false"
     inkscape:zoom="2.3645833"
     inkscape:cx="-134.64536"
     inkscape:cy="83.915296"
     inkscape:window-x="0"
     inkscape:window-y="24"
     inkscape:window-maximized="1"
     inkscape:current-layer="svg10"
     inkscape:document-rotation="0" />
  <g
     fill="#be514c"
     opacity=".99"
     transform="matrix(1.1503549 0 0 1.1503549 -4.486125 -7.525565)"
     id="g6"
     style="fill:#85bfb3;fill-opacity:1">
    <path
       d="m44.322082 27.405077a19.729762 19.729765 0 0 1 -19.729762 19.729765 19.729762 19.729765 0 0 1 -19.7297621-19.729765 19.729762 19.729765 0 0 1 19.7297621-19.7297632 19.729762 19.729765 0 0 1 19.729762 19.7297632z"
       id="path2"
       style="fill:#85bfb3;fill-opacity:1" />
    <path
       d="m44.322082 27.405077a19.729762 19.729765 0 0 1 -19.729762 19.729765 19.729762 19.729765 0 0 1 -19.7297621-19.729765 19.729762 19.729765 0 0 1 19.7297621-19.7297632 19.729762 19.729765 0 0 1 19.729762 19.7297632z"
       id="path4"
       style="fill:#85bfb3;fill-opacity:1" />
    <path
       d="m 44.322082,27.405077 c 0,10.896448 -8.833315,19.729765 -19.729762,19.729765 V 7.6753138 c 10.896446,0 19.729761,8.8333152 19.729762,19.7297632 z"
       id="path835"
       style="fill:#daca95;fill-opacity:1"
       sodipodi:nodetypes="sccs" />
    <path
       d="m 44.322082,27.405077 c 0,10.896448 -8.833315,19.729765 -19.729762,19.729765 -10.896447,0 -19.7297621,-8.833317 -19.7297621,-19.729765 z"
       id="path833"
       style="fill:#84b8de;fill-opacity:1"
       sodipodi:nodetypes="cscc" />
  </g>
  <path
     d="M 46.499999,24 A 22.696228,22.696232 0 0 1 23.803771,46.696231 22.696228,22.696232 0 0 1 1.1075422,24 22.696228,22.696232 0 0 1 23.803771,1.3037698 22.696228,22.696232 0 0 1 46.499999,24 Z"
     id="path837"
     style="opacity:0.99;fill:#adbcb9;fill-opacity:1;stroke-width:1.15035" />
  <path
     d="M 16.7015,9.8804596 10.884731,25.773293 h 3.137583 l 1.304919,-3.984022 h 6.09179 l 1.304921,3.984022 h 3.275178 L 20.479844,9.8804596 Z m 1.695149,2.5415894 2.17484,6.732554 h -4.374336 z m 4.329567,13.355535 3.145409,13.2293 h 3.933782 l 2.375047,-10.056623 2.400714,10.056623 h 3.934876 l 3.118562,-13.2293 h -3.242692 l -2.286685,9.613964 -2.267662,-9.613964 h -3.287465 l -2.268757,9.613964 -2.28559,-9.613964 z"
     fill="#272a34"
     stroke-width="0.572503"
     id="path284"
     style="fill:#f1f2f4;fill-opacity:1" />
  <path
     d="m 35.582265,11.627304 c -0.250677,0 -0.500813,0.09572 -0.692789,0.287693 L 23.955584,22.848889 c -0.02486,-0.02855 -0.0513,-0.05606 -0.08039,-0.08197 L 22.689,24.109646 c 0.193558,0.171343 0.43947,0.243271 0.67692,0.220526 0.04759,0.105771 0.113702,0.205189 0.200435,0.292458 h 5.44e-4 c 0.383408,0.383409 1.001098,0.383409 1.384574,0 L 36.274597,13.29951 c 0.383408,-0.383409 0.383408,-1.001099 0,-1.384575 -0.191975,-0.191974 -0.442111,-0.28769 -0.692259,-0.28769 z"
     fill="#ffffff"
     stroke="#e6e6e6"
     stroke-width="0.241254"
     id="path290"
     style="fill:#ffffff;fill-opacity:0.691619;stroke:none" />
  <path
     d="M 16.371259,38.670013 23.302247,25.90532 c 0.12375,-0.227404 0.402985,-0.302501 0.623512,-0.16659 0.220528,0.135383 0.299321,0.429426 0.17558,0.65683 l -6.930991,12.764691 c -0.123748,0.227404 -0.402983,0.302503 -0.623508,0.16659 -0.22053,-0.135385 -0.299322,-0.429424 -0.175581,-0.656828 z"
     fill="#fd4747"
     id="path292"
     style="stroke-width:0.135384" />
  <circle
     style="fill:#ffffff;fill-opacity:1;stroke-width:0.696746;stroke-linecap:round;stroke-linejoin:round"
     id="path857"
     cx="23.79899"
     cy="24.658329"
     r="2.9528351" />
</svg>

<?xml version="1.0" encoding="UTF-8" standalone="no"?>
<svg
   height="48"
   width="48"
   version="1.1"
   id="svg10"
   sodipodi:docname="activitywatch.svg"
   inkscape:version="1.1.2 (0a00cf5339, 2022-02-04)"
   xmlns:inkscape="http://www.inkscape.org/namespaces/inkscape"
   xmlns:sodipodi="http://sodipodi.sourceforge.net/DTD/sodipodi-0.dtd"
   xmlns="http://www.w3.org/2000/svg"
   xmlns:svg="http://www.w3.org/2000/svg"
   xmlns:rdf="http://www.w3.org/1999/02/22-rdf-syntax-ns#"
   xmlns:cc="http://creativecommons.org/ns#"
   xmlns:dc="http://purl.org/dc/elements/1.1/">
  <metadata
     id="metadata16">
    <rdf:RDF>
      <cc:Work
         rdf:about="">
        <dc:format>image/svg+xml</dc:format>
        <dc:type
           rdf:resource="http://purl.org/dc/dcmitype/StillImage" />
        <dc:title />
      </cc:Work>
    </rdf:RDF>
  </metadata>
  <defs
     id="defs14" />
  <sodipodi:namedview
     pagecolor="#ffffff"
     bordercolor="#666666"
     borderopacity="1"
     objecttolerance="10"
     gridtolerance="10"
     guidetolerance="10"
     inkscape:pageopacity="0"
     inkscape:pageshadow="2"
     inkscape:window-width="1920"
     inkscape:window-height="1031"
     id="namedview12"
     showgrid="false"
     inkscape:zoom="4.7291666"
     inkscape:cx="-21.568282"
     inkscape:cy="52.440529"
     inkscape:window-x="0"
     inkscape:window-y="0"
     inkscape:window-maximized="1"
     inkscape:current-layer="svg10"
     inkscape:document-rotation="0"
     inkscape:pagecheckerboard="0" />
  <g
     fill="#be514c"
     opacity=".99"
     transform="matrix(1.1503549 0 0 1.1503549 -4.486125 -7.525565)"
     id="g6"
     style="fill:#85bfb3;fill-opacity:1">
    <path
       d="m44.322082 27.405077a19.729762 19.729765 0 0 1 -19.729762 19.729765 19.729762 19.729765 0 0 1 -19.7297621-19.729765 19.729762 19.729765 0 0 1 19.7297621-19.7297632 19.729762 19.729765 0 0 1 19.729762 19.7297632z"
       id="path2"
       style="fill:#85bfb3;fill-opacity:1" />
    <path
       d="m44.322082 27.405077a19.729762 19.729765 0 0 1 -19.729762 19.729765 19.729762 19.729765 0 0 1 -19.7297621-19.729765 19.729762 19.729765 0 0 1 19.7297621-19.7297632 19.729762 19.729765 0 0 1 19.729762 19.7297632z"
       id="path4"
       style="fill:#85bfb3;fill-opacity:1" />
    <path
       d="m 44.322082,27.405077 c 0,10.896448 -8.833315,19.729765 -19.729762,19.729765 V 7.6753138 c 10.896446,0 19.729761,8.8333152 19.729762,19.7297632 z"
       id="path835"
       style="fill:#daca95;fill-opacity:1"
       sodipodi:nodetypes="sccs" />
    <path
       d="m 44.322082,27.405077 c 0,10.896448 -8.833315,19.729765 -19.729762,19.729765 -10.896447,0 -19.7297621,-8.833317 -19.7297621,-19.729765 z"
       id="path833"
       style="fill:#84b8de;fill-opacity:1"
       sodipodi:nodetypes="cscc" />
  </g>
  <path
     d="M 46.499999,24 A 22.696228,22.696232 0 0 1 23.803771,46.696231 22.696228,22.696232 0 0 1 1.1075422,24 22.696228,22.696232 0 0 1 23.803771,1.3037698 22.696228,22.696232 0 0 1 46.499999,24 Z"
     id="path837"
     style="opacity:0.99;fill:#8fbcbb;fill-opacity:1;stroke-width:1.15035" />
  <path
     id="path284"
     style="fill:#f1f2f4;fill-opacity:1"
     d="M 16.701172 9.8808594 L 10.884766 25.773438 L 14.021484 25.773438 L 15.328125 21.789062 L 21.419922 21.789062 L 22.724609 25.773438 L 26 25.773438 L 20.480469 9.8808594 L 16.701172 9.8808594 z M 18.396484 12.421875 L 20.572266 19.154297 L 16.197266 19.154297 L 18.396484 12.421875 z M 22.726562 25.777344 L 25.871094 39.007812 L 29.804688 39.007812 L 32.179688 28.951172 L 34.582031 39.007812 L 38.515625 39.007812 L 41.634766 25.777344 L 38.392578 25.777344 L 36.105469 35.390625 L 33.837891 25.777344 L 30.550781 25.777344 L 28.28125 35.390625 L 25.996094 25.777344 L 22.726562 25.777344 z " />
  <path
     d="m 35.582265,11.627304 c -0.250677,0 -0.500813,0.09572 -0.692789,0.287693 L 23.955584,22.848889 c -0.02486,-0.02855 -0.0513,-0.05606 -0.08039,-0.08197 L 22.689,24.109646 c 0.193558,0.171343 0.43947,0.243271 0.67692,0.220526 0.04759,0.105771 0.113702,0.205189 0.200435,0.292458 h 5.44e-4 c 0.383408,0.383409 1.001098,0.383409 1.384574,0 L 36.274597,13.29951 c 0.383408,-0.383409 0.383408,-1.001099 0,-1.384575 -0.191975,-0.191974 -0.442111,-0.28769 -0.692259,-0.28769 z"
     fill="#ffffff"
     stroke="#e6e6e6"
     stroke-width="0.241254"
     id="path290"
     style="fill:#ffffff;fill-opacity:0.691619;stroke:none" />
  <path
     d="M 16.371259,38.670013 23.302247,25.90532 c 0.12375,-0.227404 0.402985,-0.302501 0.623512,-0.16659 0.220528,0.135383 0.299321,0.429426 0.17558,0.65683 l -6.930991,12.764691 c -0.123748,0.227404 -0.402983,0.302503 -0.623508,0.16659 -0.22053,-0.135385 -0.299322,-0.429424 -0.175581,-0.656828 z"
     fill="#fd4747"
     id="path292"
     style="stroke-width:0.135384" />
  <circle
     style="fill:#ffffff;fill-opacity:1;stroke-width:0.696746;stroke-linecap:round;stroke-linejoin:round"
     id="path857"
     cx="23.79899"
     cy="24.658329"
     r="2.9528351" />
</svg>
